Numix/16/status/indicator-keyboard-Mk.svg

<?xml version="1.0" encoding="UTF-8" standalone="no"?>
<svg
   xmlns:dc="http://purl.org/dc/elements/1.1/"
   xmlns:cc="http://creativecommons.org/ns#"
   xmlns:rdf="http://www.w3.org/1999/02/22-rdf-syntax-ns#"
   xmlns:svg="http://www.w3.org/2000/svg"
   xmlns="http://www.w3.org/2000/svg"
   xmlns:sodipodi="http://sodipodi.sourceforge.net/DTD/sodipodi-0.dtd"
   xmlns:inkscape="http://www.inkscape.org/namespaces/inkscape"
   viewBox="0 0 16 16"
   id="svg2"
   version="1.1"
   inkscape:version="0.91 r13725"
   sodipodi:docname="indicator-keyboard-Mk.svg">
  <metadata
     id="metadata13">
    <rdf:RDF>
      <cc:Work
         rdf:about="">
        <dc:format>image/svg+xml</dc:format>
        <dc:type
           rdf:resource="http://purl.org/dc/dcmitype/StillImage" />
      </cc:Work>
    </rdf:RDF>
  </metadata>
  <defs
     id="defs11" />
  <sodipodi:namedview
     pagecolor="#ffffff"
     bordercolor="#666666"
     borderopacity="1"
     objecttolerance="10"
     gridtolerance="10"
     guidetolerance="10"
     inkscape:pageopacity="0"
     inkscape:pageshadow="2"
     inkscape:window-width="640"
     inkscape:window-height="480"
     id="namedview9"
     showgrid="false"
     inkscape:zoom="14.75"
     inkscape:cx="8"
     inkscape:cy="8"
     inkscape:window-x="65"
     inkscape:window-y="24"
     inkscape:window-maximized="0"
     inkscape:current-layer="svg2" />
  <path
     style="fill:#ececec;fill-opacity:1"
     d="M 1.5996094 0 C 0.71320937 2.9605947e-16 0 0.71320937 0 1.5996094 L 0 14.400391 C 2.9605947e-16 15.286791 0.71320937 16 1.5996094 16 L 14.400391 16 C 15.286791 16 16 15.286791 16 14.400391 L 16 1.5996094 C 16 0.71320937 15.286791 0 14.400391 0 L 1.5996094 0 z M 10.777344 4.5078125 L 10.777344 8.9355469 C 10.927344 8.7915469 11.09525 8.6274063 11.28125 8.4414062 C 11.46725 8.2554063 11.653844 8.0650469 11.839844 7.8730469 C 12.031844 7.6810469 12.210906 7.4964063 12.378906 7.3164062 C 12.546906 7.1364062 12.6925 6.9778438 12.8125 6.8398438 L 13.513672 6.8398438 C 13.375672 6.9838437 13.218922 7.1442188 13.044922 7.3242188 C 12.870922 7.5042188 12.688094 7.6945781 12.496094 7.8925781 C 12.310094 8.0845781 12.125453 8.2729844 11.939453 8.4589844 L 11.433594 8.9628906 C 11.619594 9.0888906 11.819297 9.2512188 12.029297 9.4492188 C 12.245297 9.6472187 12.454203 9.863656 12.658203 10.097656 C 12.868203 10.325656 13.064141 10.562594 13.244141 10.808594 C 13.430141 11.048594 13.584938 11.276188 13.710938 11.492188 L 13.019531 11.492188 C 12.875531 11.252188 12.709437 11.017062 12.523438 10.789062 C 12.343438 10.555063 12.151266 10.336813 11.947266 10.132812 C 11.749266 9.9288122 11.54775 9.7422187 11.34375 9.5742188 C 11.14575 9.4062187 10.957344 9.2663438 10.777344 9.1523438 L 10.777344 11.492188 L 10.193359 11.492188 L 10.193359 4.6152344 L 10.777344 4.5078125 z M 2.7285156 5.2558594 L 3.2695312 5.2558594 C 3.4495313 5.5558594 3.6417031 5.9028281 3.8457031 6.2988281 C 4.0497031 6.6888281 4.2512187 7.0974375 4.4492188 7.5234375 C 4.6532187 7.9434375 4.8472031 8.3594375 5.0332031 8.7734375 C 5.2252031 9.1814375 5.3931094 9.5508594 5.5371094 9.8808594 C 5.6811094 9.5508594 5.8472031 9.1814375 6.0332031 8.7734375 C 6.2252031 8.3594375 6.4191875 7.9434375 6.6171875 7.5234375 C 6.8211875 7.0974375 7.0245156 6.6888281 7.2285156 6.2988281 C 7.4325156 5.9028281 7.6246875 5.5558594 7.8046875 5.2558594 L 8.3183594 5.2558594 C 8.4203594 6.2038594 8.5043125 7.196375 8.5703125 8.234375 C 8.6423125 9.272375 8.7057656 10.358187 8.7597656 11.492188 L 8.1386719 11.492188 C 8.1026719 10.526188 8.0597187 9.6045159 8.0117188 8.7285156 C 7.9697187 7.8465156 7.9100313 7.03125 7.8320312 6.28125 C 7.7840312 6.36525 7.7094219 6.5088906 7.6074219 6.7128906 C 7.5054219 6.9168906 7.3878594 7.1538281 7.2558594 7.4238281 C 7.1238594 7.6938281 6.9857969 7.984875 6.8417969 8.296875 C 6.6977969 8.602875 6.5579219 8.9032656 6.4199219 9.1972656 C 6.2819219 9.4852656 6.1550156 9.7520469 6.0410156 9.9980469 C 5.9330156 10.244047 5.8490625 10.441797 5.7890625 10.591797 L 5.2402344 10.591797 C 5.1802344 10.441797 5.0925156 10.244047 4.9785156 9.9980469 C 4.8705156 9.7520469 4.7493281 9.4852656 4.6113281 9.1972656 C 4.4733281 8.9032656 4.3315 8.602875 4.1875 8.296875 C 4.0435 7.984875 3.9054375 7.6938281 3.7734375 7.4238281 C 3.6414375 7.1538281 3.523875 6.9168906 3.421875 6.7128906 C 3.319875 6.5088906 3.2452656 6.36525 3.1972656 6.28125 C 3.1192656 7.03125 3.0558125 7.8465156 3.0078125 8.7285156 C 2.9658125 9.6045159 2.926625 10.526188 2.890625 11.492188 L 2.2890625 11.492188 C 2.3430625 10.358187 2.40275 9.272375 2.46875 8.234375 C 2.54075 7.196375 2.6265156 6.2038594 2.7285156 5.2558594 z "
     id="path4" />
</svg>

<svg xmlns="http://www.w3.org/2000/svg" viewBox="0 0 16 16">
 <path d="m 1.6 0 c -0.886 0 -1.6 0.713 -1.6 1.6 l 0 12.801 c 0 0.886 0.713 1.6 1.6 1.6 l 12.801 0 c 0.886 0 1.6 -0.713 1.6 -1.6 l 0 -12.801 c 0 -0.886 -0.713 -1.6 -1.6 -1.6 l -12.801 0 z m 9.178 4.508 l 0 4.428 c 0.15 -0.144 0.318 -0.308 0.504 -0.494 c 0.186 -0.186 0.373 -0.376 0.559 -0.568 c 0.192 -0.192 0.371 -0.377 0.539 -0.557 c 0.168 -0.18 0.314 -0.339 0.434 -0.477 l 0.701 0 c -0.138 0.144 -0.295 0.304 -0.469 0.484 c -0.174 0.18 -0.357 0.37 -0.549 0.568 c -0.186 0.192 -0.371 0.38 -0.557 0.566 l -0.506 0.504 c 0.186 0.126 0.386 0.288 0.596 0.486 c 0.216 0.198 0.425 0.414 0.629 0.648 c 0.21 0.228 0.406 0.465 0.586 0.711 c 0.186 0.24 0.341 0.468 0.467 0.684 l -0.691 0 c -0.144 -0.24 -0.31 -0.475 -0.496 -0.703 c -0.18 -0.234 -0.372 -0.452 -0.576 -0.656 c -0.198 -0.204 -0.4 -0.391 -0.604 -0.559 c -0.198 -0.168 -0.386 -0.308 -0.566 -0.422 l 0 2.34 l -0.584 0 l 0 -6.877 l 0.584 -0.107 z m -8.05 0.748 l 0.541 0 c 0.18 0.3 0.372 0.647 0.576 1.043 c 0.204 0.39 0.406 0.799 0.604 1.225 c 0.204 0.42 0.398 0.836 0.584 1.25 c 0.192 0.408 0.36 0.777 0.504 1.107 c 0.144 -0.33 0.31 -0.699 0.496 -1.107 c 0.192 -0.414 0.386 -0.83 0.584 -1.25 c 0.204 -0.426 0.407 -0.835 0.611 -1.225 c 0.204 -0.396 0.396 -0.743 0.576 -1.043 l 0.514 0 c 0.102 0.948 0.186 1.941 0.252 2.979 c 0.072 1.038 0.135 2.124 0.189 3.258 l -0.621 0 c -0.036 -0.966 -0.079 -1.888 -0.127 -2.764 c -0.042 -0.882 -0.102 -1.697 -0.18 -2.447 c -0.048 0.084 -0.123 0.228 -0.225 0.432 c -0.102 0.204 -0.22 0.441 -0.352 0.711 c -0.132 0.27 -0.27 0.561 -0.414 0.873 c -0.144 0.306 -0.284 0.606 -0.422 0.9 c -0.138 0.288 -0.265 0.555 -0.379 0.801 c -0.108 0.246 -0.192 0.444 -0.252 0.594 l -0.549 0 c -0.06 -0.15 -0.148 -0.348 -0.262 -0.594 c -0.108 -0.246 -0.229 -0.513 -0.367 -0.801 c -0.138 -0.294 -0.28 -0.594 -0.424 -0.9 c -0.144 -0.312 -0.282 -0.603 -0.414 -0.873 c -0.132 -0.27 -0.25 -0.507 -0.352 -0.711 c -0.102 -0.204 -0.177 -0.348 -0.225 -0.432 c -0.078 0.75 -0.141 1.565 -0.189 2.447 c -0.042 0.876 -0.081 1.798 -0.117 2.764 l -0.602 0 c 0.054 -1.134 0.114 -2.22 0.18 -3.258 c 0.072 -1.038 0.158 -2.031 0.26 -2.979 z" style="fill:#ececec;fill-opacity:1"/>
</svg>
